src/cc.svg

<svg viewBox="0 0 16 16" fill="none" xmlns="http://www.w3.org/2000/svg"><path fill-rule="evenodd" clip-rule="evenodd" d="M14 3H1V13H15V3H14ZM14 12H2V4H14V12ZM5.99997 10.33C6.44694 10.348 6.88414 10.1961 7.22365 9.9048C7.56316 9.61353 7.77979 9.20451 7.82997 8.76001L6.82997 8.59001C6.73997 9.19001 6.50997 9.49001 6.03997 9.49001C5.56997 9.49001 5.19997 9.00001 5.19997 8.00001C5.19997 7.00001 5.48997 6.52001 5.99997 6.52001C6.50997 6.52001 6.64997 6.85001 6.72997 7.42001L7.78997 7.25001C7.76168 6.80329 7.55731 6.38604 7.22173 6.08982C6.88614 5.79361 6.44675 5.64263 5.99997 5.67001C4.78997 5.67001 3.99997 6.54001 3.99997 8.08001C3.93483 8.60493 4.08029 9.13429 4.40452 9.55222C4.72874 9.97015 5.20533 10.2426 5.72997 10.31C5.81896 10.3266 5.90951 10.3333 5.99997 10.33ZM11.3791 9.91907C11.0309 10.2114 10.5837 10.3585 10.13 10.33L9.94001 10.32C9.67927 10.2867 9.42765 10.2023 9.19955 10.0716C8.97145 9.941 8.77134 9.76668 8.61066 9.55863C8.44999 9.35059 8.3319 9.11292 8.26315 8.8592C8.19441 8.60549 8.17635 8.34071 8.21001 8.08001C8.21001 6.54001 9.00001 5.67001 10.21 5.67001C10.6568 5.64263 11.0962 5.79361 11.4318 6.08982C11.7674 6.38604 11.9717 6.80329 12 7.25001L10.89 7.39001C10.81 6.82001 10.66 6.49001 10.16 6.49001C9.66001 6.49001 9.37001 7.00001 9.37001 8.00001C9.37001 9.00001 9.73001 9.49001 10.21 9.49001C10.69 9.49001 10.92 9.19001 11 8.59001L12 8.76001C11.9495 9.21176 11.7272 9.62678 11.3791 9.91907Z" fill="#111111"/></svg>

<svg viewBox="0 0 16 16" fill="none" xmlns="http://www.w3.org/2000/svg"><path fill-rule="evenodd" clip-rule="evenodd" d="M14 3H1v10h14V3h-1Zm0 9H2V4h12v8Zm-8-1.67a1.77 1.77 0 0 0 1.83-1.57l-1-.17c-.09.6-.32.9-.79.9C5.57 9.49 5.2 9 5.2 8s.29-1.48.8-1.48.65.33.73.9l1.06-.17A1.69 1.69 0 0 0 6 5.67c-1.21 0-2 .87-2 2.41a2 2 0 0 0 1.73 2.23c.089.017.18.023.27.02Zm5.38-.41a1.77 1.77 0 0 1-1.25.41l-.19-.01a1.999 1.999 0 0 1-1.73-2.24c0-1.54.79-2.41 2-2.41A1.69 1.69 0 0 1 12 7.25l-1.11.14c-.08-.57-.23-.9-.73-.9S9.37 7 9.37 8s.36 1.49.84 1.49.71-.3.79-.9l1 .17a1.77 1.77 0 0 1-.62 1.16Z" fill="#111111"/></svg>
